X:2487
T:Cancioneiro de Casto Sampedro: N\'umero 348
T:A chouteira de Mondeñedo
O:Galicia (Spain)
B:Cancioneiro de Casto Sampedro
Z:Transcrito por Jos\'e J. Presedo
Z:Covertido de Midi a abc por Antonio-Nil
N:http://www.arrakis.es/~jpresedo/
M: 4/4
L: 1/8
Q:1/4=180
K:C % 0 sharps
z2 dd/2[e/2d/2-] d/2e/2d B3/2G/2|Bc3/2A/2c d3/2B/2 dd/2[e/2d/2-]|d/2e/2d B3/2G/2 BB/2[d/2-c/2] d/2c/2A|Gz dd3/2e/2d B3/2G/2|
Bc3/2A/2c d3/2B/2 dd-|d/2e/2d B3/2G/2 BB/2[d/2-c/2] d/2c/2A|A/2Gz/2 GG/2[A/2G/2-] G/2A/2^A =A/2[c/2-^A/2]c|=AA3/2^A/2c ^A/2[d/2-c/2]d/2^A/2 GG/2[=A/2G/2-]|
G/2A/2^A =A/2[c/2-B/2]c/2A/2 ^FD3/2E/2^F|A/2Gz/2 GG/2[A/2G/2-] G/2A/2^A =A/2[c/2-^A/2]c|=AA3/2^A/2c ^A/2[d/2-c/2]d/2^A/2 GG/2[=A/2G/2-]|G/2A/2^A =A/2[c/2-B/2]c/2A/2 ^FD3/2E/2^F|
A/2Gz/2 GA/2[c/2-B/2] c/2B/2^A B3/2=F/2|G=A3/2E/2F Gz GA/2[c/2-B/2]|c/2B/2^A B3/2F/2 G=A3/2E/2F|Gz Gc3/2B/2A B3/2F/2|
GA3/2E/2F Gz dd/2[e/2d/2-]|d/2e/2d B3/2G/2 Bc3/2A/2c|d3/2B/2 dd/2[e/2d/2-] d/2e/2d B3/2G/2|BB/2[d/2-c/2] d/2c/2A Gz dd-|
d/2e/2d B3/2G/2 Bc3/2A/2c|d3/2B/2 dd3/2e/2d B3/2G/2|BB/2[d/2-c/2] d/2c/2A A/2Gz/2 GG/2[A/2G/2-]|G/2A/2^A =A/2[c/2-^A/2]c =AA3/2^A/2c|
^A/2[d/2-c/2]d/2^A/2 GG/2[=A/2G/2-] G/2A/2^A =A/2[c/2-B/2]c/2A/2|^FD3/2E/2^F A/2Gz/2 GG/2[A/2G/2-]|G/2A/2^A =A/2[c/2-^A/2]c =AA3/2^A/2c|^A/2[d/2-c/2]d/2^A/2 GG/2[=A/2G/2-] G/2A/2^A =A/2[c/2-B/2]c/2A/2|
^FD3/2E/2^F A/2Gz/2 GA/2[c/2-B/2]|c/2B/2^A B3/2=F/2 G=A3/2E/2F|Gz GA/2[c/2-B/2] c/2B/2^A B3/2F/2|G=A3/2E/2F Gz Gc-|
c/2B/2A B3/2F/2 GA3/2E/2F|G


